X:301
T:Trollens brudmarsch
R:Marsch
Z:Klas Krantz, 2006
O:Hälsingland
S:efter Pelle Schenell
L:1/8
M:C|
K:Gm
"Gm"d4 {e}d^cde | d2c2B2A2 | {c}B3A"(D7)"G2^F2 | "Gm"G6D2 |
G^FGA BABc | d^cd^f gfga | b3g"D7"a2^f2 | d2{e}d^cd4 |
"Gm"d4 {e}d^cde | d2c2B2A2 | {c}B3A"(D7)"G2^F2 | "Gm"G6D2 |
G^FGA BABc | d^cd^f gfga | b3g"D7"a2^f2 | "Gm"g2{a}g^f g4 :|]
"F"f4{g}f=efg | f2e2d2c2 | "Bb"d4{e}dcde | d8 |
"D7"d4 {e}dcde | d2c2B2A2 | "Gm"G4{A}G^FGA | G6=F2 |
"Cm"E4{F}EDEF | G4F2E2 | "Gm"D4{E}DCDE | D6D2 |
G^FGA BABc | d^cd^f gfga | b3g"D7"a2^f2 | "Gm"g2{a}g^fg4 :|]
(:musicend:)


(:music:)
